X: 1
T: Gaelforce Wind
T: 8x32J 3C (Derek Haynes, Carnforth 3)
P: Gaelforce Wind
M: 6/8
L: 1/8
C: Robert P/M Mathieson
Z: 2015 John Chambers <jc:trillian.mit.edu> from several other transcriptions
S: Jig
K: D
f | \
"D"afd Adf | "G"gfg B2 d | "A"cea gec | "D"dcd f2d |\
"D"afd Adf | "G"gfg cBd | "A"caa gec | "D"Add d2 :|
|: G |\
"D"daa afd | "A"cea A2 c | "G"Bdg gdB | "A"AaB aca |\
"D"daa afd | "A"cea A2c | "G"Bdg adB | "A"AaB aca :|
|: e |\
"D"fef afd | "G"GBg B2 B | "A"ece gBc | "D"daf "A"g2 e |\
"D"afd ABA | "G"gdB G2 d | "A"caa gec | "D"Add d2 :|
"A7"A |\
"D"daa afd | "A"cad aea | "G"Bdg gdB | "A"AaB aca |\
"D"daa afd | "A"cea A2d | "A"caa gec | "D"Add d2 ||
e |\
"D"faa afd | "A"caa "D"fad | "A"cad aea | "D"faa afd |\
"D"faa afd | "A"cea A2d | "A"caa gec | "D"Add d2 |]
